X:3
T:Beautiful Pearl
R:reel
C:Paul S. Cranford
O:Cape Breton Island
S:http://www.cranfordpub.com
D:currently unrecorded
B:currently unpublished in book form
Z:psc, (re-formatted,updated 9/17/04)
N:Composed to celebrate the birth of Hannah Lai Chu Vincent.(born July 28, 2003)
H:                                                        copyrights Cranford Publications, SOCAN
L:1/8
Q:333
M:C|
K:A
cd|e^dea c=c^ce|AGAc EACE|FAdc BcAF|GBAF E2 cd|
e^dea c=c^ce|AGAc EACE|FAdc BcAG|A2 c2 A2:|
|:GA|Bdcd edcd|BcAG A2 cd|eaga baga|1gB^df e2 =dc|
Bdcd edce|dBAG A2 EA|FAdc BcAG|A2 c2 A2:|
[2gB^df e2 c=d|e^dea c=c^ce|AGAc EACE|FAdc BcAG|A2 c2 A2|]
